source/images/designphilly/Sarah/IMG_3112.xmp
<x:xmpmeta xmlns:x="adobe:ns:meta/" x:xmptk="Adobe XMP Core 4.2-c020 1.124078, Tue Sep 11 2007 23:21:40        ">
 <rdf:RDF xmlns:rdf="http://www.w3.org/1999/02/22-rdf-syntax-ns#">
  <rdf:Description rdf:about=""
    xmlns:tiff="http://ns.adobe.com/tiff/1.0/">
   <tiff:Make>Canon</tiff:Make>
   <tiff:Model>Canon EOS 450D</tiff:Model>
   <tiff:Orientation>1</tiff:Orientation>
  </rdf:Description>
  <rdf:Description rdf:about=""
    xmlns:exif="http://ns.adobe.com/exif/1.0/">
   <exif:ExifVersion>0221</exif:ExifVersion>
   <exif:ExposureTime>1/1600</exif:ExposureTime>
   <exif:ShutterSpeedValue>10643856/1000000</exif:ShutterSpeedValue>
   <exif:FNumber>28/10</exif:FNumber>
   <exif:ApertureValue>2970854/1000000</exif:ApertureValue>
   <exif:ExposureProgram>3</exif:ExposureProgram>
   <exif:ISOSpeedRatings>
    <rdf:Seq>
     <rdf:li>200</rdf:li>
    </rdf:Seq>
   </exif:ISOSpeedRatings>
   <exif:DateTimeOriginal>2010-04-05T01:40:15.03-04:00</exif:DateTimeOriginal>
   <exif:DateTimeDigitized>2010-04-05T01:40:15.03-04:00</exif:DateTimeDigitized>
   <exif:ExposureBiasValue>0/1</exif:ExposureBiasValue>
   <exif:MaxApertureValue>3/1</exif:MaxApertureValue>
   <exif:MeteringMode>5</exif:MeteringMode>
   <exif:Flash rdf:parseType="Resource">
    <exif:Fired>False</exif:Fired>
    <exif:Return>0</exif:Return>
    <exif:Mode>2</exif:Mode>
    <exif:Function>False</exif:Function>
    <exif:RedEyeMode>False</exif:RedEyeMode>
   </exif:Flash>
   <exif:FocalLength>18/1</exif:FocalLength>
   <exif:CustomRendered>0</exif:CustomRendered>
   <exif:ExposureMode>0</exif:ExposureMode>
   <exif:WhiteBalance>1</exif:WhiteBalance>
   <exif:SceneCaptureType>0</exif:SceneCaptureType>
   <exif:FocalPlaneXResolution>4272000/878</exif:FocalPlaneXResolution>
   <exif:FocalPlaneYResolution>2848000/584</exif:FocalPlaneYResolution>
   <exif:FocalPlaneResolutionUnit>2</exif:FocalPlaneResolutionUnit>
  </rdf:Description>
  <rdf:Description rdf:about=""
    xmlns:xap="http://ns.adobe.com/xap/1.0/">
   <xap:ModifyDate>2010-04-05T01:40:15.03-04:00</xap:ModifyDate>
   <xap:CreateDate>2010-04-05T01:40:15.03-04:00</xap:CreateDate>
   <xap:Rating>0</xap:Rating>
  </rdf:Description>
  <rdf:Description rdf:about=""
    xmlns:aux="http://ns.adobe.com/exif/1.0/aux/">
   <aux:SerialNumber>1780525923</aux:SerialNumber>
   <aux:LensInfo>17/1 55/1 0/0 0/0</aux:LensInfo>
   <aux:Lens>EF-S17-55mm f/2.8 IS USM</aux:Lens>
   <aux:ImageNumber>0</aux:ImageNumber>
   <aux:FlashCompensation>0/1</aux:FlashCompensation>
   <aux:Firmware>1.1.0</aux:Firmware>
  </rdf:Description>
  <rdf:Description rdf:about=""
    xmlns:crs="http://ns.adobe.com/camera-raw-settings/1.0/">
   <crs:RawFileName>IMG_3112.CR2</crs:RawFileName>
   <crs:Version>5.0</crs:Version>
   <crs:WhiteBalance>Custom</crs:WhiteBalance>
   <crs:Temperature>4650</crs:Temperature>
   <crs:Tint>+3</crs:Tint>
   <crs:Exposure>+1.05</crs:Exposure>
   <crs:Shadows>5</crs:Shadows>
   <crs:Brightness>+50</crs:Brightness>
   <crs:Contrast>+25</crs:Contrast>
   <crs:Saturation>+9</crs:Saturation>
   <crs:Sharpness>25</crs:Sharpness>
   <crs:LuminanceSmoothing>0</crs:LuminanceSmoothing>
   <crs:ColorNoiseReduction>25</crs:ColorNoiseReduction>
   <crs:ChromaticAberrationR>0</crs:ChromaticAberrationR>
   <crs:ChromaticAberrationB>0</crs:ChromaticAberrationB>
   <crs:VignetteAmount>0</crs:VignetteAmount>
   <crs:ShadowTint>0</crs:ShadowTint>
   <crs:RedHue>0</crs:RedHue>
   <crs:RedSaturation>0</crs:RedSaturation>
   <crs:GreenHue>0</crs:GreenHue>
   <crs:GreenSaturation>0</crs:GreenSaturation>
   <crs:BlueHue>0</crs:BlueHue>
   <crs:BlueSaturation>0</crs:BlueSaturation>
   <crs:FillLight>0</crs:FillLight>
   <crs:Vibrance>0</crs:Vibrance>
   <crs:HighlightRecovery>0</crs:HighlightRecovery>
   <crs:Clarity>0</crs:Clarity>
   <crs:Defringe>0</crs:Defringe>
   <crs:HueAdjustmentRed>0</crs:HueAdjustmentRed>
   <crs:HueAdjustmentOrange>0</crs:HueAdjustmentOrange>
   <crs:HueAdjustmentYellow>0</crs:HueAdjustmentYellow>
   <crs:HueAdjustmentGreen>0</crs:HueAdjustmentGreen>
   <crs:HueAdjustmentAqua>0</crs:HueAdjustmentAqua>
   <crs:HueAdjustmentBlue>0</crs:HueAdjustmentBlue>
   <crs:HueAdjustmentPurple>0</crs:HueAdjustmentPurple>
   <crs:HueAdjustmentMagenta>0</crs:HueAdjustmentMagenta>
   <crs:SaturationAdjustmentRed>0</crs:SaturationAdjustmentRed>
   <crs:SaturationAdjustmentOrange>0</crs:SaturationAdjustmentOrange>
   <crs:SaturationAdjustmentYellow>0</crs:SaturationAdjustmentYellow>
   <crs:SaturationAdjustmentGreen>0</crs:SaturationAdjustmentGreen>
   <crs:SaturationAdjustmentAqua>0</crs:SaturationAdjustmentAqua>
   <crs:SaturationAdjustmentBlue>0</crs:SaturationAdjustmentBlue>
   <crs:SaturationAdjustmentPurple>0</crs:SaturationAdjustmentPurple>
   <crs:SaturationAdjustmentMagenta>0</crs:SaturationAdjustmentMagenta>
   <crs:LuminanceAdjustmentRed>0</crs:LuminanceAdjustmentRed>
   <crs:LuminanceAdjustmentOrange>0</crs:LuminanceAdjustmentOrange>
   <crs:LuminanceAdjustmentYellow>0</crs:LuminanceAdjustmentYellow>
   <crs:LuminanceAdjustmentGreen>0</crs:LuminanceAdjustmentGreen>
   <crs:LuminanceAdjustmentAqua>0</crs:LuminanceAdjustmentAqua>
   <crs:LuminanceAdjustmentBlue>0</crs:LuminanceAdjustmentBlue>
   <crs:LuminanceAdjustmentPurple>0</crs:LuminanceAdjustmentPurple>
   <crs:LuminanceAdjustmentMagenta>0</crs:LuminanceAdjustmentMagenta>
   <crs:SplitToningShadowHue>0</crs:SplitToningShadowHue>
   <crs:SplitToningShadowSaturation>0</crs:SplitToningShadowSaturation>
   <crs:SplitToningHighlightHue>0</crs:SplitToningHighlightHue>
   <crs:SplitToningHighlightSaturation>0</crs:SplitToningHighlightSaturation>
   <crs:SplitToningBalance>0</crs:SplitToningBalance>
   <crs:ParametricShadows>0</crs:ParametricShadows>
   <crs:ParametricDarks>0</crs:ParametricDarks>
   <crs:ParametricLights>0</crs:ParametricLights>
   <crs:ParametricHighlights>0</crs:ParametricHighlights>
   <crs:ParametricShadowSplit>25</crs:ParametricShadowSplit>
   <crs:ParametricMidtoneSplit>50</crs:ParametricMidtoneSplit>
   <crs:ParametricHighlightSplit>75</crs:ParametricHighlightSplit>
   <crs:SharpenRadius>+1.0</crs:SharpenRadius>
   <crs:SharpenDetail>25</crs:SharpenDetail>
   <crs:SharpenEdgeMasking>0</crs:SharpenEdgeMasking>
   <crs:PostCropVignetteAmount>0</crs:PostCropVignetteAmount>
   <crs:ConvertToGrayscale>False</crs:ConvertToGrayscale>
   <crs:ToneCurveName>Medium Contrast</crs:ToneCurveName>
   <crs:ToneCurve>
    <rdf:Seq>
     <rdf:li>0, 0</rdf:li>
     <rdf:li>32, 22</rdf:li>
     <rdf:li>64, 56</rdf:li>
     <rdf:li>128, 128</rdf:li>
     <rdf:li>192, 196</rdf:li>
     <rdf:li>255, 255</rdf:li>
    </rdf:Seq>
   </crs:ToneCurve>
   <crs:CameraProfile>ACR 4.4</crs:CameraProfile>
   <crs:CameraProfileDigest>2D2E78C82D51022B8770D8F9382F4E7A</crs:CameraProfileDigest>
   <crs:HasSettings>True</crs:HasSettings>
   <crs:HasCrop>False</crs:HasCrop>
   <crs:AlreadyApplied>False</crs:AlreadyApplied>
  </rdf:Description>
  <rdf:Description rdf:about=""
    xmlns:photoshop="http://ns.adobe.com/photoshop/1.0/">
   <photoshop:SidecarForExtension>CR2</photoshop:SidecarForExtension>
  </rdf:Description>
 </rdf:RDF>
</x:xmpmeta>
